X:1
T:Title
%%score { ( 1 3 ) | 2 }
L:1/8
Q:1/4=114
M:6/4
K:Bb
V:1 treble nm="Grand Piano"
V:3 treble 
V:2 bass 
V:1
 [DF]3 [DF] [DF]2 [DB]4 [B,FA]2 | [B,EG]6 .[B,DF]6 | %2
w: William~J.~Kirkpatrick * * * *||
 [F,A,E]3 [F,A,E] [F,A,E]2[K:treble] [A,CF]4 [A,CF]2 | [F,B,D]12 | [DF]3 [DF] [DF]2 [DB]4 [FA]2 | %5
w: |||
 [EG]6 .[DF]6 | z6 .A6 | F12 | A3 A A2 B4 B2 | c6 .F6 | B4 B2 [Gc]4 [Gc]2 | [^Fd]12 | %12
w: |||||||
 [Fd]3 [Fd] [Fd]2 [FB]4 F2 | A6 .G6 | F3 F F2 G4 A2 | [DB]12 |] %16
w: ||||
V:2
 [B,,B,]3 [B,,B,] [B,,B,]2 [B,,F,]4 D,2 | E,6 .B,,6 | C,3 C, C,2 F,,4 F,,2 | B,,12 | %4
 [B,,B,]3 [B,,B,] [B,,B,]2 [B,,F,]4 [D,B,]2 | [E,B,]6 .[B,,B,]6 | %6
 [C,G,C]2 [C,G,C]2 [C,A,C]2 .[C,F,C]4 [C,B,]2 | [F,A,C]12 | [F,C]3 [F,C] [F,C]2 [F,B,D]4 [F,B,D]2 | %9
 [F,A,E]6 .[F,CE]6 | [G,B,D]4 [G,B,D]2 [E,G,]4 [E,G,]2 | [D,A,]12 | %12
 [B,,B,]3 [B,,B,] [B,,B,]2 [D,B,]4 [D,B,]2 | [E,B,F]6 .[E,B,E]6 | %14
 [F,B,D]3 [F,B,D] [F,B,D]2 [F,A,E]4 [F,E]2 | [B,,F,]12 |] %16
V:3
 x12 | x12 | x6[K:treble] x6 | x12 | x12 | x12 | =E2 E2 F2 z2 F2 [EG]2 | x12 | x12 | x12 | x12 | %11
 x12 | x12 | x12 | x12 | x12 |] %16

